dist/img/catalog/chars/gear.svg

<svg width="18" height="19" viewBox="0 0 18 19" fill="none" xmlns="http://www.w3.org/2000/svg">
<path d="M16.6986 7.99304L15.2529 7.81938C15.1052 7.26796 14.8888 6.74698 14.6101 6.2636L15.5089 5.12122C15.6463 4.94562 15.6307 4.67412 15.472 4.51601L13.9822 3.02567C13.8254 2.86821 13.5532 2.85136 13.377 2.98873L12.2326 3.88877C11.7512 3.61014 11.2302 3.39372 10.68 3.24728L10.507 1.80165C10.4804 1.58069 10.2763 1.3999 10.0534 1.3999H7.94609C7.72318 1.3999 7.51906 1.58069 7.49314 1.80165L7.31948 3.24728C6.76868 3.39437 6.24704 3.61144 5.76557 3.88942L4.62185 2.99068C4.44689 2.85331 4.17473 2.86951 4.01727 3.02697L2.52687 4.51795C2.37005 4.67476 2.35385 4.94691 2.49188 5.12316L3.39001 6.26619C3.11137 6.74828 2.89493 7.2699 2.74784 7.82133L1.3028 7.99434C1.08183 8.02025 0.900391 8.22437 0.900391 8.44792V10.5551C0.900391 10.778 1.08118 10.9808 1.3028 11.0081L2.74849 11.1817C2.89623 11.7312 3.11201 12.2522 3.39065 12.7343L2.49253 13.8786C2.3558 14.0542 2.37135 14.3257 2.52946 14.4838L4.01727 15.9748C4.17473 16.1316 4.44689 16.1491 4.62185 16.0117L5.76622 15.111C6.24833 15.3897 6.76933 15.6067 7.32013 15.7532L7.49379 17.1982C7.52036 17.4198 7.72383 17.5999 7.94674 17.5999H10.054C10.2776 17.5999 10.4811 17.4198 10.507 17.1982L10.6807 15.7532C11.2321 15.6054 11.7531 15.389 12.2346 15.111L13.3789 16.0098C13.5545 16.1471 13.826 16.1309 13.9835 15.9735L15.4733 14.4825C15.6314 14.3257 15.6476 14.0535 15.5096 13.8766L14.6101 12.7336C14.8894 12.2515 15.1052 11.7306 15.2529 11.1804L16.698 11.0068C16.9196 10.9802 17.1004 10.778 17.1004 10.5538V8.44662C17.101 8.22242 16.9209 8.01961 16.6986 7.99304ZM9.00104 13.5494C6.76414 13.5494 4.95104 11.7364 4.95104 9.49958C4.95104 7.26277 6.76414 5.44974 9.00104 5.44974C11.2379 5.44974 13.051 7.26277 13.051 9.49958C13.051 11.7364 11.2386 13.5494 9.00104 13.5494Z" fill="black"/>
</svg>

<svg width="18" height="19" viewBox="0 0 18 19" fill="none" xmlns="http://www.w3.org/2000/svg"><path d="M16.699 7.993l-1.446-.174a6.45 6.45 0 00-.643-1.555l.899-1.143a.469.469 0 00-.037-.605l-1.49-1.49a.47.47 0 00-.605-.037l-1.144.9a6.365 6.365 0 00-1.553-.642l-.173-1.445a.47.47 0 00-.454-.402H7.946a.468.468 0 00-.453.402L7.32 3.247a6.418 6.418 0 00-1.553.642l-1.144-.898a.47.47 0 00-.605.036l-1.49 1.49a.47.47 0 00-.035.606l.898 1.143a6.4 6.4 0 00-.642 1.555l-1.445.173a.469.469 0 00-.403.454v2.107a.47.47 0 00.403.453l1.445.174c.148.55.364 1.07.643 1.552l-.898 1.145a.47.47 0 00.036.605l1.488 1.49a.47.47 0 00.605.038l1.144-.901a6.377 6.377 0 001.554.642l.174 1.445c.026.222.23.402.453.402h2.107c.224 0 .427-.18.453-.402l.174-1.445a6.437 6.437 0 001.554-.642l1.144.899a.47.47 0 00.604-.037l1.49-1.49a.47.47 0 00.037-.606l-.9-1.143c.28-.482.495-1.003.643-1.554l1.445-.173a.468.468 0 00.402-.453V8.447a.467.467 0 00-.401-.454zM9 13.549A4.05 4.05 0 119 5.45a4.05 4.05 0 010 8.1z" fill="#000"/></svg>
